X: 1
T:Brudvals efter Brnnlund
S:(efter Arvid Brnnlund, Ragunda SvL 639)
N:efter Arvid Brnnlund
A:Ragunda, Jmtland
B:Svenska Ltar Jmtland-Hrjedalen nr 639
O:Sweden
M:3/4
L:1/8
Q:1/4=160
K:Dm
a2|"dm"f4 (ef)|"dm"d2 (fd) (fd)|"am"c2 (ec) (ec)|"dm"(d2 f2) a2|\
"dm"f4 (ef)|"dm"d2 (fd) (fd)|"am"c2 (ec) (ec)|"dm"d2z2:|\
|:{B}A2|"dm"A2 (FD) (FA)|"dm"A2d2d2|"am"c2 (ec) (ec)|"dm"d2 (fd) A2|\
"dm"{B}A2 (FD) (FA)|"dm"A2d2d2|"am"c2 (ec) (ec)|"dm"d4:|
T:Komp:
